material/.icons/material/sprinkler.svg

<svg xmlns="http://www.w3.org/2000/svg" viewBox="0 0 24 24"><path d="M11 7h2v2h-2V7M5 22h4V10H5v12m9-11h2V9h-2v2m3-1h2V8h-2v2m0-5v2h2V5h-2m-3 3h2V6h-2v2m3 5h2v-2h-2v2M5 7h.33L6 9h2l.67-2H9V6H5v1z"/></svg>

<?xml version="1.0" encoding="UTF-8"?><!DOCTYPE svg PUBLIC "-//W3C//DTD SVG 1.1//EN" "http://www.w3.org/Graphics/SVG/1.1/DTD/svg11.dtd"><svg xmlns="http://www.w3.org/2000/svg" xmlns:xlink="http://www.w3.org/1999/xlink" version="1.1" id="mdi-sprinkler" width="24" height="24" viewBox="0 0 24 24"><path d="M11 7H13V9H11V7M5 22H9V10H5V22M14 11H16V9H14V11M17 10H19V8H17V10M17 5V7H19V5H17M14 8H16V6H14V8M17 13H19V11H17V13M5 7H5.33L6 9H8L8.67 7H9V6H5V7Z" /></svg>
